src/assets/icons/Matrix/Rotador/matrix9_l.svg

<?xml version="1.0" encoding="UTF-8"?>
<svg id="Capa_2" data-name="Capa 2" xmlns="http://www.w3.org/2000/svg" viewBox="0 0 38.75 1.64">
  <defs>
    <style>
      .cls-1 {
        fill: none;
        stroke: #000;
        stroke-linecap: round;
        stroke-linejoin: round;
        stroke-width: .05px;
      }
    </style>
  </defs>
  <g id="Capa_1-2" data-name="Capa 1">
    <g>
      <polyline class="cls-1" points="19.55 .9 19.55 1.02 19.55 1.05 19.58 1.05 19.61 1.05 20.45 1.05 20.45 1.08 20.48 1.08 20.48 1.11 20.48 1.31 20.48 1.34 20.48 1.37 20.45 1.37 20.45 1.4 20.42 1.4 20.42 1.43 20.39 1.43 20.36 1.43"/>
      <polyline class="cls-1" points="19.25 .86 19.25 .9 19.41 1.19 19.44 1.22 19.47 1.22 20.25 1.22 20.25 1.31 20.28 1.34 20.28 1.37 20.3 1.4 20.33 1.43 20.36 1.43"/>
      <line class="cls-1" x1="19.25" y1=".9" x2="19.25" y2=".9"/>
      <line class="cls-1" x1="19.25" y1=".86" x2="19.25" y2=".77"/>
      <polyline class="cls-1" points="18.05 1.05 10.7 1.05 10.67 1.05 10.64 1.05 10.64 1.08 10.64 1.28 10.64 1.31 10.67 1.31 10.7 1.31 10.85 1.31 10.88 1.31 10.88 1.34 10.91 1.34 10.91 1.37 10.91 1.58 10.91 1.61 10.88 1.61 10.85 1.61 10.19 1.61 10.16 1.61 10.13 1.61 10.13 1.58 10.13 1.37 10.13 1.34 10.16 1.34 10.16 1.31 10.19 1.31 10.41 1.31 10.44 1.31 10.47 1.31 10.47 1.28 10.47 1.08 10.47 1.05 10.44 1.05 10.41 1.05 2.75 1.05 2.54 1.05 2.51 1.05 2.51 1.08 2.48 1.08 2.48 1.58 2.48 1.61 2.45 1.61 2.33 1.61 .05 1.61 .03 1.61 .03 1.58 .03 1.49 .03 1.46 .05 1.46 .05 1.43 .23 1.43 .56 1.43 .59 1.46 .59 1.43 2.28 1.43 2.3 1.43 2.3 1.4 2.33 1.4 2.33 .77"/>
      <polyline class="cls-1" points="1.79 1.05 1.44 1.05 1.44 1.02 1.41 1.02 1.41 .99 1.41 .9 1.41 .86 1.44 .86 1.82 .86"/>
      <line class="cls-1" x1="3.17" y1=".86" x2="18.05" y2=".86"/>
      <path class="cls-1" d="m3.15.84c.14-.16.16-.38.05-.57-.1-.18-.31-.28-.51-.24-.21.04-.37.2-.4.4"/>
      <path class="cls-1" d="m2.77.83c.15,0,.29-.11.31-.26.02-.15-.06-.3-.21-.35-.15-.05-.31.02-.38.15"/>
      <path class="cls-1" d="m19.41.84c.14-.16.16-.38.05-.57-.1-.18-.31-.28-.51-.24-.21.04-.37.2-.4.4"/>
      <path class="cls-1" d="m19.23.76c.11-.09.15-.24.09-.37-.05-.13-.19-.21-.33-.19-.14.02-.25.12-.28.26"/>
      <path class="cls-1" d="m1.78.83c.24,0,.45-.17.49-.41"/>
      <path class="cls-1" d="m1.78,1.02c.2,0,.39-.09.52-.25"/>
      <line class="cls-1" x1="2.48" y1=".8" x2="2.48" y2=".38"/>
      <line class="cls-1" x1="2.78" y1=".86" x2="2.54" y2=".86"/>
      <path class="cls-1" d="m2.48.79s.02.04.05.04"/>
      <path class="cls-1" d="m18.04.83c.24,0,.45-.17.49-.41"/>
      <path class="cls-1" d="m18.04,1.02c.33,0,.61-.23.66-.56"/>
      <polyline class="cls-1" points="37.64 .86 37.64 1.02 37.67 1.05 37.7 1.05 38.66 1.05 38.66 1.08 38.69 1.08 38.72 1.08 38.72 1.11 38.72 1.31 38.72 1.34 38.69 1.34 38.69 1.37 38.66 1.4 38.63 1.43 38.6 1.43"/>
      <polyline class="cls-1" points="37.47 .77 37.47 1.16 37.47 1.19 37.5 1.19 37.5 1.22 37.53 1.22 38.48 1.22 38.48 1.31 38.48 1.34 38.48 1.37 38.51 1.37 38.51 1.4 38.54 1.4 38.54 1.43 38.57 1.43 38.6 1.43"/>
      <polyline class="cls-1" points="36.26 1.05 28.91 1.05 28.88 1.05 28.85 1.08 28.85 1.28 28.88 1.31 28.91 1.31 29.09 1.31 29.09 1.34 29.12 1.34 29.12 1.37 29.12 1.58 29.12 1.61 29.09 1.61 28.41 1.61 28.37 1.61 28.37 1.58 28.34 1.58 28.34 1.37 28.37 1.34 28.41 1.31 28.64 1.31 28.67 1.31 28.67 1.28 28.67 1.08 28.67 1.05 28.64 1.05 20.97 1.05 20.75 1.05 20.72 1.05 20.72 1.08 20.72 1.58 20.72 1.61 20.69 1.61 20.66 1.61 20.54 1.61 18.29 1.61 18.26 1.61 18.23 1.61 18.23 1.58 18.23 1.49 18.23 1.46 18.26 1.46 18.26 1.43 18.29 1.43 18.44 1.43 18.78 1.43 18.8 1.46 18.83 1.43 20.48 1.43 20.51 1.43 20.54 1.43 20.54 1.4 20.54 .77"/>
      <polyline class="cls-1" points="20 1.05 19.67 1.05 19.64 1.05 19.64 1.02 19.61 1.02 19.61 .99 19.61 .9 19.64 .86 19.67 .86 20.03 .86"/>
      <line class="cls-1" x1="21.38" y1=".86" x2="36.26" y2=".86"/>
      <path class="cls-1" d="m21.39.84c.14-.16.16-.38.05-.57-.1-.18-.31-.28-.51-.24-.21.04-.37.2-.4.4"/>
      <path class="cls-1" d="m21.01.83c.15,0,.29-.11.31-.26.02-.15-.06-.3-.21-.35-.15-.05-.31.02-.38.15"/>
      <path class="cls-1" d="m37.62.84c.14-.16.16-.38.05-.57-.1-.18-.31-.28-.51-.24-.21.04-.37.2-.4.4"/>
      <path class="cls-1" d="m37.44.76c.11-.09.15-.24.09-.37-.05-.13-.19-.21-.33-.19-.14.02-.25.12-.28.26"/>
      <path class="cls-1" d="m19.99.83c.24,0,.45-.17.49-.41"/>
      <path class="cls-1" d="m19.99,1.02c.2,0,.39-.09.52-.25"/>
      <line class="cls-1" x1="20.72" y1=".8" x2="20.72" y2=".38"/>
      <line class="cls-1" x1="21.03" y1=".86" x2="20.75" y2=".86"/>
      <path class="cls-1" d="m20.69.79s.02.04.05.04"/>
      <path class="cls-1" d="m36.25.83c.24,0,.45-.17.49-.41"/>
      <path class="cls-1" d="m36.25,1.02c.33,0,.61-.23.66-.56"/>
      <path class="cls-1" d="m19.53.88s-.02-.05-.05-.05"/>
      <line class="cls-1" x1="19.44" y1=".86" x2="19.5" y2=".86"/>
      <line class="cls-1" x1="19.25" y1=".9" x2="19.41" y2="1.19"/>
    </g>
  </g>
</svg>

<?xml version="1.0" encoding="UTF-8" standalone="no"?>
<svg
   id="Capa_2"
   data-name="Capa 2"
   viewBox="0 0 20.5 1.6387905"
   version="1.1"
   sodipodi:docname="matrix9_l.svg"
   width="20.5"
   height="1.6387905"
   inkscape:version="1.3.2 (091e20e, 2023-11-25, custom)"
   xmlns:inkscape="http://www.inkscape.org/namespaces/inkscape"
   xmlns:sodipodi="http://sodipodi.sourceforge.net/DTD/sodipodi-0.dtd"
   xmlns="http://www.w3.org/2000/svg"
   xmlns:svg="http://www.w3.org/2000/svg">
  <sodipodi:namedview
     id="namedview25"
     pagecolor="#ffffff"
     bordercolor="#000000"
     borderopacity="0.25"
     inkscape:showpageshadow="2"
     inkscape:pageopacity="0.0"
     inkscape:pagecheckerboard="0"
     inkscape:deskcolor="#d1d1d1"
     showgrid="false"
     inkscape:zoom="32"
     inkscape:cx="17.796875"
     inkscape:cy="1.953125"
     inkscape:window-width="2560"
     inkscape:window-height="1369"
     inkscape:window-x="-8"
     inkscape:window-y="-8"
     inkscape:window-maximized="1"
     inkscape:current-layer="g25" />
  <defs
     id="defs1">
    <style
       id="style1">
      .cls-1 {
        fill: none;
        stroke: #000;
        stroke-linecap: round;
        stroke-linejoin: round;
        stroke-width: .05px;
      }
    </style>
  </defs>
  <g
     id="Capa_1-2"
     data-name="Capa 1"
     transform="translate(-0.005,0.00379047)">
    <g
       id="g25">
      <polyline
         class="cls-1"
         points="19.55 .9 19.55 1.02 19.55 1.05 19.58 1.05 19.61 1.05 20.45 1.05 20.45 1.08 20.48 1.08 20.48 1.11 20.48 1.31 20.48 1.34 20.48 1.37 20.45 1.37 20.45 1.4 20.42 1.4 20.42 1.43 20.39 1.43 20.36 1.43"
         id="polyline1" />
      <polyline
         class="cls-1"
         points="19.25 .86 19.25 .9 19.41 1.19 19.44 1.22 19.47 1.22 20.25 1.22 20.25 1.31 20.28 1.34 20.28 1.37 20.3 1.4 20.33 1.43 20.36 1.43"
         id="polyline2" />
      <line
         class="cls-1"
         x1="19.25"
         y1="0.89999998"
         x2="19.25"
         y2="0.89999998"
         id="line2" />
      <line
         class="cls-1"
         x1="19.25"
         y1="0.86000001"
         x2="19.25"
         y2="0.76999998"
         id="line3" />
      <polyline
         class="cls-1"
         points="18.05 1.05 10.7 1.05 10.67 1.05 10.64 1.05 10.64 1.08 10.64 1.28 10.64 1.31 10.67 1.31 10.7 1.31 10.85 1.31 10.88 1.31 10.88 1.34 10.91 1.34 10.91 1.37 10.91 1.58 10.91 1.61 10.88 1.61 10.85 1.61 10.19 1.61 10.16 1.61 10.13 1.61 10.13 1.58 10.13 1.37 10.13 1.34 10.16 1.34 10.16 1.31 10.19 1.31 10.41 1.31 10.44 1.31 10.47 1.31 10.47 1.28 10.47 1.08 10.47 1.05 10.44 1.05 10.41 1.05 2.75 1.05 2.54 1.05 2.51 1.05 2.51 1.08 2.48 1.08 2.48 1.58 2.48 1.61 2.45 1.61 2.33 1.61 .05 1.61 .03 1.61 .03 1.58 .03 1.49 .03 1.46 .05 1.46 .05 1.43 .23 1.43 .56 1.43 .59 1.46 .59 1.43 2.28 1.43 2.3 1.43 2.3 1.4 2.33 1.4 2.33 .77"
         id="polyline3" />
      <polyline
         class="cls-1"
         points="1.79 1.05 1.44 1.05 1.44 1.02 1.41 1.02 1.41 .99 1.41 .9 1.41 .86 1.44 .86 1.82 .86"
         id="polyline4" />
      <line
         class="cls-1"
         x1="3.1700001"
         y1="0.86000001"
         x2="18.049999"
         y2="0.86000001"
         id="line4" />
      <path
         class="cls-1"
         d="M 3.15,0.84 C 3.29,0.68 3.31,0.46 3.2,0.27 3.1,0.09 2.89,-0.01 2.69,0.03 2.48,0.07 2.32,0.23 2.29,0.43"
         id="path4" />
      <path
         class="cls-1"
         d="M 2.77,0.83 C 2.92,0.83 3.06,0.72 3.08,0.57 3.1,0.42 3.02,0.27 2.87,0.22 2.72,0.17 2.56,0.24 2.49,0.37"
         id="path5" />
      <path
         class="cls-1"
         d="m 19.41,0.84 c 0.14,-0.16 0.16,-0.38 0.05,-0.57 -0.1,-0.18 -0.31,-0.28 -0.51,-0.24 -0.21,0.04 -0.37,0.2 -0.4,0.4"
         id="path6" />
      <path
         class="cls-1"
         d="M 19.23,0.76 C 19.34,0.67 19.38,0.52 19.32,0.39 19.27,0.26 19.13,0.18 18.99,0.2 18.85,0.22 18.74,0.32 18.71,0.46"
         id="path7" />
      <path
         class="cls-1"
         d="m 1.78,0.83 c 0.24,0 0.45,-0.17 0.49,-0.41"
         id="path8" />
      <path
         class="cls-1"
         d="m 1.78,1.02 c 0.2,0 0.39,-0.09 0.52,-0.25"
         id="path9" />
      <line
         class="cls-1"
         x1="2.48"
         y1="0.80000001"
         x2="2.48"
         y2="0.38"
         id="line9" />
      <line
         class="cls-1"
         x1="2.78"
         y1="0.86000001"
         x2="2.54"
         y2="0.86000001"
         id="line10" />
      <path
         class="cls-1"
         d="m 2.48,0.79 c 0,0 0.02,0.04 0.05,0.04"
         id="path10" />
      <path
         class="cls-1"
         d="m 18.04,0.83 c 0.24,0 0.45,-0.17 0.49,-0.41"
         id="path11" />
      <path
         class="cls-1"
         d="m 18.04,1.02 c 0.33,0 0.61,-0.23 0.66,-0.56"
         id="path12" />
      <path
         class="cls-1"
         d="m 19.53,0.88 c 0,0 -0.02,-0.05 -0.05,-0.05"
         id="path24" />
      <line
         class="cls-1"
         x1="19.440001"
         y1="0.86000001"
         x2="19.5"
         y2="0.86000001"
         id="line24" />
      <line
         class="cls-1"
         x1="19.25"
         y1="0.89999998"
         x2="19.41"
         y2="1.1900001"
         id="line25" />
    </g>
  </g>
</svg>
